icons/global/user-settings/change-log.svg

<svg width="24" height="24" viewBox="0 0 24 24" fill="none" xmlns="http://www.w3.org/2000/svg">
<path d="M12.994 2C7.467 2 3 6.478 3 12H1L4.1 15.408L7.223 12H5.223C5.22353 9.93757 6.04306 7.95977 7.50142 6.50142C8.95977 5.04306 10.9376 4.22353 13 4.223C15.0413 4.25573 16.9878 5.0896 18.4198 6.54469C19.8517 7.99979 20.6543 9.95948 20.6543 12.001C20.6543 14.0425 19.8517 16.0022 18.4198 17.4573C16.9878 18.9124 15.0413 19.7463 13 19.779C10.85 19.779 8.911 18.899 7.506 17.494L5.934 19.066C6.85874 19.997 7.95875 20.7356 9.1705 21.2392C10.3823 21.7428 11.6818 22.0014 12.994 22C18.522 22 23 17.522 23 12C23 6.478 18.522 2 12.994 2ZM11.498 6.438V13.07L17.174 16.438L18.127 14.826L13.487 12.074V6.438H11.498Z" fill="black"/>
</svg>

<svg xmlns="http://www.w3.org/2000/svg" width="24" height="24" fill="none">
  <path fill="#000" d="M12.994 2C7.467 2 3 6.478 3 12H1l3.1 3.408L7.223 12h-2A7.779 7.779 0 0 1 13 4.223a7.78 7.78 0 0 1 0 15.556c-2.15 0-4.089-.88-5.494-2.285l-1.572 1.572A9.937 9.937 0 0 0 12.994 22C18.522 22 23 17.522 23 12S18.522 2 12.994 2Zm-1.496 4.438v6.632l5.676 3.368.953-1.612-4.64-2.752V6.438h-1.989Z"/>
</svg>
